X: 83
T: Mac Forsets farewell
T: Longways for as many as will.
%R: strathspey
B: Daniel Wright "Wright's Compleat Collection of Celebrated Country Dances" 1740 p.42
S: http://library.efdss.org/cgi-bin/dancebooks.cgi
Z: 2014 John Chambers <jc:trillian.mit.edu>
N: Repeats modified to match the "Each strain twice" instruction.
M: C|
L: 1/16
K: F
% - - - - - - - - - - - - - - - - - - - - - - - - -
C2 |\
F3GF3A GGG2 G2A2 | F3GE3A D4 C4 |\
F3GF3A GGG2 G2A2 | F2EF GFED C6 :|
|: c2 |\
FFF2 c2A2 d2G2G2A2 | FFF2 c2E2 D4 C2c2 |\
FFF2 c2A2 d2G2G2A2 | F2EF GFED C6 :|
|: c2 |\
A2F2B2G2 c2A2d2B2 | F2D2 B2D2 E3DC3c |\
A2F2B2G2 c2A2d2B2 | F2EF GFED | C6 :|
% - - - - - - - - - - - - - - - - - - - - - - - - -
%%center Each strain twice
%%begintext align
%% The 1st Cu. cast off & lead up all 4 with the 2d Cu .|
%% The 2d Cu. does the same :| The 1st Man turn the
%% 2d Wo .| and the 1st Wo. the 2d Man :| then cross over
%% and go the Figure thro' the 2d Cu. the 2d Cu. being
%% in the 1st Cu. Place, meet & sett, cast off, then
%% the 1st Cu. cast off and begin again.
%%endtext
% - - - - - - - - - - - - - - - - - - - - - - - - -
%%sep 2 4 300
